X:2487
T:Polska från Södermanland
T:Svenska Folkdansar H2 nr 36
O:Södermanland
B:Traditioner av Svenska Folkdansar Häfte 2, nr 36
R:Polska
Z:Nils L
M:3/4
L:1/16
K:C
g2fe f2ed e2dc | {e/}d2cB c4 c4 | G2e2 F2d2 E2c2 | D2cB c4 c4 |
G2e2 F2d2 E2c2 | D2cB c2d2 e2^f2 | g2b2 a2g2 {b/}a2g^f | g4 g8 ::
g2ag f2gf e2fe | d2e2 f4 f4 | f2ag f2e2 d2c2 | B2>A2 G4 G4 |
G2e2 F2d2 E2c2 | D2cB {d/}c2BA G2F2 | G2e2 F2d2 E2c2 | D2cB [cE]8 :|
(:musicend:)
(:music:)
